icons/lines/call-calling.svg

<svg xmlns="http://www.w3.org/2000/svg" width="24" height="24" viewBox="0 0 24 24" fill="none" stroke="currentColor" stroke-width="2" stroke-linecap="round" stroke-linejoin="round">
  <path d="M18.5 9c0-.6-.47-1.52-1.17-2.27-.64-.69-1.49-1.23-2.33-1.23" />
  <path d="M21.97 18.33a2.55 2.55 0 0 1-.25 1.09 4.1 4.1 0 0 1-.68 1.02 4.5 4.5 0 0 1-1.64 1.18 5 5 0 0 1-1.95.38c-1.02 0-2.11-.24-3.26-.73a17.6 17.6 0 0 1-3.44-1.98 29 29 0 0 1-3.28-2.8 28.4 28.4 0 0 1-2.79-3.27c-.82-1.14-1.48-2.28-1.96-3.41Q2 8.1 2 6.54a5.2 5.2 0 0 1 .36-1.93 4.6 4.6 0 0 1 1.15-1.67C4.15 2.31 4.85 2 5.59 2a1.9 1.9 0 0 1 .81.18 1.63 1.63 0 0 1 .67.56l2.32 3.27a3.4 3.4 0 0 1 .4.7 1.6 1.6 0 0 1 .14.61 1.36 1.36 0 0 1-.21.71 3.4 3.4 0 0 1-.56.71l-.76.79a.54.54 0 0 0-.16.4 1 1 0 0 0 .03.23l.08.2c.18.33.49.76.93 1.28a34 34 0 0 0 1.45 1.58 30 30 0 0 0 1.59 1.47c.52.44.95.74 1.29.92l.18.08a.7.7 0 0 0 .25.04.55.55 0 0 0 .41-.17l.76-.75a3 3 0 0 1 .72-.56 1.33 1.33 0 0 1 .71-.21 1.6 1.6 0 0 1 .61.13 4 4 0 0 1 .7.39l3.31 2.35a1.5 1.5 0 0 1 .55.64 2 2 0 0 1 .16.78" />
  <path d="M22 9a7 7 0 0 0-7-7" />
</svg>

<svg xmlns="http://www.w3.org/2000/svg" width="24" height="24" viewBox="0 0 24 24" fill="none" stroke="currentColor" stroke-width="2" stroke-linecap="round" stroke-linejoin="round" >
  <path d="M21.97 18.33C21.97 18.69 21.89 19.06 21.72 19.42C21.55 19.78 21.33 20.12 21.04 20.44C20.55 20.98 20.01 21.37 19.4 21.62C18.8 21.87 18.15 22 17.45 22C16.43 22 15.34 21.76 14.19 21.27C13.04 20.78 11.89 20.12 10.75 19.29C9.6 18.45 8.51 17.52 7.47 16.49C6.44 15.45 5.51 14.36 4.68 13.22C3.86 12.08 3.2 10.94 2.72 9.81C2.24 8.67 2 7.58 2 6.54C2 5.86 2.12 5.21 2.36 4.61C2.6 4 2.98 3.44 3.51 2.94C4.15 2.31 4.85 2 5.59 2C5.87 2 6.15 2.06 6.4 2.18C6.66 2.3 6.89 2.48 7.07 2.74L9.39 6.01C9.57 6.26 9.7 6.49 9.79 6.71C9.88 6.92 9.93 7.13 9.93 7.32C9.93 7.56 9.86 7.8 9.72 8.03C9.59 8.26 9.4 8.5 9.16 8.74L8.4 9.53C8.29 9.64 8.24 9.77 8.24 9.93C8.24 10.01 8.25 10.08 8.27 10.16C8.3 10.24 8.33 10.3 8.35 10.36C8.53 10.69 8.84 11.12 9.28 11.64C9.73 12.16 10.21 12.69 10.73 13.22C11.27 13.75 11.79 14.24 12.32 14.69C12.84 15.13 13.27 15.43 13.61 15.61C13.66 15.63 13.72 15.66 13.79 15.69C13.87 15.72 13.95 15.73 14.04 15.73C14.21 15.73 14.34 15.67 14.45 15.56L15.21 14.81C15.46 14.56 15.7 14.37 15.93 14.25C16.16 14.11 16.39 14.04 16.64 14.04C16.83 14.04 17.03 14.08 17.25 14.17C17.47 14.26 17.7 14.39 17.95 14.56L21.26 16.91C21.52 17.09 21.7 17.3 21.81 17.55C21.91 17.8 21.97 18.05 21.97 18.33Z" stroke-miterlimit="10"/>
  <path d="M18.5 9C18.5 8.4 18.03 7.48 17.33 6.73C16.69 6.04 15.84 5.5 15 5.5"/>
  <path d="M22 9C22 5.13 18.87 2 15 2"/>
  </svg>
